flags/language/en-sg.svg

<svg width="512" height="512" viewBox="0 0 512 512" fill="none" xmlns="http://www.w3.org/2000/svg">
<rect y="204.863" width="512" height="307.137" fill="var(--flag-palette-white, #eeeeee)"/>
<rect width="512" height="256" fill="var(--flag-palette-bright-red, #d80027)"/>
<path d="M83.4721 127.999C83.4721 90.7007 109.685 59.5427 144.689 51.8977C139.309 50.7237 133.728 50.0867 127.993 50.0867C84.9621 50.0867 50.0801 84.9687 50.0801 128C50.0801 171.031 84.9621 205.913 127.993 205.913C133.726 205.913 139.308 205.276 144.689 204.101C109.685 196.456 83.4721 165.298 83.4721 127.999Z" fill="var(--flag-palette-white, #eeeeee)"/>
<path d="M183.646 55.6517L189.172 72.6567H207.053L192.586 83.1677L198.112 100.173L183.646 89.6637L169.18 100.173L174.706 83.1677L160.24 72.6567H178.12L183.646 55.6517Z" fill="var(--flag-palette-white, #eeeeee)"/>
<path d="M140.271 89.0427L145.796 106.049H163.677L149.211 116.559L154.737 133.564L140.271 123.055L125.803 133.564L131.33 116.559L116.863 106.049H134.744L140.271 89.0427Z" fill="var(--flag-palette-white, #eeeeee)"/>
<path d="M227.022 89.0427L232.549 106.049H250.429L235.962 116.559L241.489 133.564L227.022 123.055L212.556 133.564L218.082 116.559L203.616 106.049H221.496L227.022 89.0427Z" fill="var(--flag-palette-white, #eeeeee)"/>
<path d="M210.327 139.13L215.853 156.136H233.733L219.267 166.646L224.793 183.651L210.327 173.142L195.861 183.651L201.387 166.646L186.921 156.136H204.8L210.327 139.13Z" fill="var(--flag-palette-white, #eeeeee)"/>
<path d="M156.966 139.13L162.491 156.136H180.373L165.906 166.646L171.433 183.651L156.966 173.142L142.499 183.651L148.025 166.646L133.559 156.136H151.44L156.966 139.13Z" fill="var(--flag-palette-white, #eeeeee)"/>
<path d="M512 0L512 512L16.0005 512L192.001 336L192.001 320L224.001 288L288.001 288L288.001 224L512 0Z" fill="var(--flag-palette-white, #eeeeee)"/>
<path d="M320.001 368L320.001 512L464 512L320.001 368Z" fill="var(--flag-palette-blue, #0052b4)"/>
<path d="M48.0005 512L192.001 368L192.001 512L48.0005 512Z" fill="var(--flag-palette-blue, #0052b4)"/>
<path d="M368.001 320L512 464L512 320L368.001 320Z" fill="var(--flag-palette-blue, #0052b4)"/>
<path d="M512 192L512 48.0005L368.001 192L512 192Z" fill="var(--flag-palette-blue, #0052b4)"/>
<path d="M288.001 224L224.001 288L224.001 512L288.001 512L288.001 288L512 288L512 224L288.001 224Z" fill="var(--flag-palette-bright-red, #d80027)"/>
<path d="M512 480L352.001 320L320.001 320L512 512L512 480Z" fill="var(--flag-palette-bright-red, #d80027)"/>
<path d="M32.0005 512L192.001 352L192.001 320L0.000518799 512L32.0005 512Z" fill="var(--flag-palette-bright-red, #d80027)"/>
</svg>

<svg xmlns="http://www.w3.org/2000/svg" width="512" height="512" fill="none"><g clip-path="url(#a)"><path fill="#EEE" d="M0 204.9h512V512H0z"/><path fill="var(--flag-palette-bright-red, #d80027)" d="M0 0h512v256H0z"/><path fill="#EEE" d="M83.5 128a78 78 0 0 1 61.2-76.1q-8.1-1.8-16.7-1.8a78 78 0 1 0 16.7 154A78 78 0 0 1 83.5 128m100.1-72.3 5.6 17H207l-14.5 10.5 5.5 17-14.5-10.5-14.4 10.5 5.5-17-14.5-10.5h18z"/><path fill="#EEE" d="m140.3 89 5.5 17h17.9l-14.5 10.6 5.5 17-14.4-10.5-14.5 10.5 5.5-17L117 106h17.8zm86.7 0 5.5 17h18L236 116.6l5.5 17L227 123l-14.4 10.5 5.5-17-14.5-10.6h17.9zm-16.7 50.1 5.6 17h17.8l-14.4 10.5 5.5 17-14.5-10.5-14.4 10.6 5.5-17-14.5-10.6h17.9zm-53.3 0 5.5 17h17.9l-14.5 10.5 5.5 17-14.4-10.5-14.5 10.6 5.5-17-14.4-10.6h17.8zM512 0v512H16l176-176v-16l32-32h64v-64z"/><path fill="var(--flag-palette-blue, #0052b4)" d="M320 368v144h144zM48 512l144-144v144zm320-192 144 144V320zm144-128V48L368 192z"/><path fill="var(--flag-palette-bright-red, #d80027)" d="m288 224-64 64v224h64V288h224v-64z"/><path fill="var(--flag-palette-bright-red, #d80027)" d="M512 480 352 320h-32l192 192zM32 512l160-160v-32L0 512z"/></g><defs><clipPath id="a"><path fill="#fff" d="M0 0h512v512H0z"/></clipPath></defs></svg>
